X: 1020
T: Something hath some favour.
%R: jig
B: Henry Playford "Apollo's Banquet", London 1687 (5th Edition)
F: https://archive.org/details/apollosbanquetco01rugg
Z: 2017 John Chambers <jc:trillian.mit.edu>
M: 6/4
L: 1/4
K: Bb
% - - - - - - - - - -
|:\
f3 d>cB | A2B c2d |\
efg f>ed | c3 B3 ::\
c2d GAB | cA2 G2F |
f2g def | Bf2 g2a |\
b3 f>ed | c2d e2f |\
g3 f>ed | c3 B3 |]
% - - - - - - - - - -

%%sep 1 1 500
%%sep 1 1 500

